bosszhipin.svg

<svg viewBox="0 0 24 24" xmlns="http://www.w3.org/2000/svg"><path d="M17.3837 11.6336L12.5576 11.6336L12.5576 12.9255L13.2036 12.9255L13.2036 19.5215L12.462 19.6316L12.7054 20.9613L15.5037 20.4253L15.5037 22.5081L16.7812 22.5081L16.7812 20.1704L17.4387 20.0372L17.3692 18.7973L16.7812 18.8929L16.7812 12.9255L17.3808 12.9255L17.3808 11.6336M15.5037 12.9255L15.5037 14.203L14.4608 14.203L14.4608 12.9255L15.5037 12.9255M15.5037 16.6653L14.4608 16.6653L14.4608 15.3878L15.5037 15.3878L15.5037 16.6653M14.4637 17.8385L15.5066 17.8385L15.5066 19.116L14.4637 19.3014L14.4637 17.8385M23.8696 18.1456L23.8696 16.9753L17.0766 16.9753L17.0766 18.1456L18.5395 18.1456C18.3339 18.8727 18.1311 19.5071 17.9254 20.043L21.8245 20.043C21.7347 20.6252 21.6217 20.9815 21.4856 21.1032C21.3958 21.1756 21.2451 21.2133 21.0308 21.2133C20.5354 21.2133 20.0517 21.1872 19.5795 21.138C19.704 21.3176 19.8054 21.529 19.8865 21.7695C19.959 22.007 20.0024 22.233 20.0198 22.4415C20.6455 22.4676 21.1814 22.4618 21.6246 22.4299C21.8535 22.4183 22.0418 22.3778 22.1866 22.3083C22.3488 22.2532 22.4908 22.1576 22.6153 22.0215C22.7775 21.8564 22.9079 21.5696 23.0064 21.164C23.1078 20.7672 23.1976 20.1936 23.2758 19.4375C23.2874 19.313 23.299 19.1392 23.3077 18.9132L19.7417 18.9132L19.9648 18.1456L23.8696 18.1456M21.1293 11.1759L19.8054 11.1759L19.8054 12.1463L17.5633 12.1463L17.5633 16.4278L23.3714 16.4278L23.3714 12.1463L21.1293 12.1463L21.1293 11.1759M22.0533 13.1428L22.0533 13.8264L21.1264 13.8264L21.1264 13.1428L22.0533 13.1428M19.8054 13.1428L19.8054 13.8264L18.8147 13.8264L18.8147 13.1428L19.8054 13.1428M21.1293 15.4313L21.1293 14.7592L22.0562 14.7592L22.0562 15.4313L21.1293 15.4313M19.8054 14.7592L19.8054 15.4313L18.8147 15.4313L18.8147 14.7592L19.8054 14.7592M6.36427 11.2946L4.74786 11.1353L4.68992 12.0362L0.307061 12.0362L0.307061 13.3137L4.5306 13.3137L4.435 13.9336L1.58455 13.9336L1.58455 20.8801L0 20.8801L0 22.1837L11.1266 22.1837L11.1266 20.8801L9.56814 20.8801L9.56814 13.9365L5.85444 13.9365L5.98769 13.3166L10.8138 13.3166L10.8138 12.0391L6.23681 12.0391L6.36427 11.2946M8.09656 16.8304L8.09656 17.4387L2.98371 17.4387L2.98371 16.8304L8.09656 16.8304M8.09656 15.13L8.09656 15.7702L2.98371 15.7702L2.98371 15.13L8.09656 15.13M2.98371 19.145L2.98371 18.499L8.09656 18.499L8.09656 19.145L2.98371 19.145M2.98371 20.883L2.98371 20.2052L8.09656 20.2052L8.09656 20.883L2.98371 20.883M17.966 2.38696C17.824 2.24502 17.6734 2.11756 17.5054 2.00459C17.3432 1.89451 17.1664 1.80181 16.9753 1.72939C16.7928 1.64828 16.6016 1.58745 16.4075 1.54979C16.2076 1.51213 16.0077 1.49185 15.8078 1.49185C15.466 1.49185 15.1445 1.544 14.8432 1.64538C14.5535 1.74677 14.3015 1.89161 14.09 2.07411C13.8757 2.2624 13.7135 2.47387 13.5976 2.7143C13.4817 2.96632 13.4238 3.23283 13.4238 3.51382C13.4238 3.75715 13.4614 3.9831 13.5396 4.19167C13.6121 4.38286 13.7164 4.55957 13.8525 4.72179C13.98 4.86663 14.1306 4.99698 14.2986 5.11285C14.4608 5.21424 14.6346 5.30694 14.8229 5.38805L15.7441 5.78491C16.1265 5.95003 16.3756 6.07459 16.4915 6.1557C16.5813 6.23102 16.6508 6.31213 16.703 6.39903C16.7551 6.49173 16.7783 6.60181 16.7783 6.72637C16.7783 6.84514 16.7551 6.95522 16.7088 7.05951C16.6624 7.158 16.59 7.242 16.4915 7.30863C16.4017 7.38105 16.2858 7.43609 16.1468 7.47375C16.0048 7.51141 15.8513 7.53168 15.6804 7.53168C15.382 7.53168 15.0721 7.45926 14.7534 7.31442C14.4521 7.17827 14.174 6.99578 13.922 6.76403L13.1283 7.71708C13.2934 7.8793 13.4759 8.02414 13.6729 8.1516C13.8728 8.27906 14.0785 8.38624 14.2928 8.47025C14.5101 8.55425 14.7302 8.62088 14.9562 8.66723C15.185 8.71068 15.4168 8.73096 15.6456 8.73096C16.0338 8.73096 16.3901 8.67592 16.7116 8.56584C17.0187 8.45866 17.2852 8.30513 17.5112 8.10525C17.7284 7.91696 17.8935 7.69101 18.0094 7.4274C18.1253 7.17538 18.1832 6.90887 18.1832 6.62209C18.1832 6.37876 18.1485 6.1557 18.0818 5.95003C18.021 5.75884 17.9312 5.58503 17.8066 5.42571C17.6879 5.28087 17.5372 5.14762 17.3605 5.02885C17.2041 4.91877 17.0129 4.81738 16.7928 4.72758L15.8861 4.33651C15.5037 4.18298 15.2517 4.06421 15.1329 3.97731C15.0257 3.90779 14.9504 3.82957 14.904 3.73977C14.8432 3.64707 14.8142 3.54279 14.8142 3.42692C14.8142 3.19228 14.904 3.01267 15.0836 2.88232C15.2632 2.74906 15.5066 2.68533 15.8107 2.68533C16.0888 2.68533 16.3467 2.73748 16.59 2.83887C16.8188 2.92867 17.0477 3.06771 17.2736 3.2618L17.966 2.38696M4.83766 3.34001C4.83766 3.02136 4.77393 2.74906 4.64647 2.52891C4.5306 2.31165 4.35679 2.13494 4.12215 1.99879C3.90489 1.86554 3.64128 1.76995 3.32842 1.71201C3.03874 1.65697 2.70851 1.628 2.33772 1.628L0.057936 1.628L0.057936 8.6006L2.51732 8.6006C2.8997 8.6006 3.25311 8.55715 3.57755 8.47314C3.90489 8.38914 4.18588 8.26168 4.42052 8.09656C4.67254 7.92565 4.86083 7.71418 4.98829 7.45637C5.05782 7.32311 5.10706 7.18407 5.14182 7.03343C5.17658 6.87701 5.19396 6.71479 5.19396 6.54677C5.19396 6.31792 5.1592 6.10356 5.09258 5.90658C5.03174 5.72698 4.94484 5.56765 4.82317 5.42861C4.7131 5.30115 4.57695 5.19107 4.41473 5.09547C4.26119 5.00567 4.08739 4.93905 3.8962 4.8898L3.8962 4.84635C4.03814 4.79421 4.1685 4.71889 4.29306 4.6175C4.40314 4.51611 4.50163 4.39445 4.58564 4.2525C4.66675 4.11635 4.72758 3.96862 4.77103 3.81219C4.81738 3.65866 4.83766 3.50223 4.83766 3.34001M2.79831 2.73748C2.95474 2.77224 3.08509 2.82148 3.18069 2.89101C3.28787 2.96053 3.36608 3.04744 3.41823 3.15172C3.46457 3.2618 3.48775 3.39215 3.48775 3.54279C3.48775 3.68473 3.46457 3.81219 3.41823 3.92517C3.37188 4.03524 3.29656 4.13084 3.19517 4.21195C3.08799 4.28727 2.95763 4.351 2.79831 4.39734C2.64188 4.4408 2.45359 4.46107 2.23633 4.46107L1.43102 4.46107L1.43102 2.68533L2.2624 2.68533C2.46807 2.68823 2.64478 2.70561 2.79831 2.73748M1.43102 5.49813L2.38986 5.49813C2.63609 5.49813 2.84756 5.51841 3.02136 5.55607C3.20386 5.59083 3.3545 5.64587 3.47616 5.72118C3.60362 5.7965 3.69632 5.89789 3.75136 6.02245C3.82088 6.14122 3.85275 6.28606 3.85275 6.45697C3.85275 6.63657 3.81798 6.793 3.75136 6.92915C3.68763 7.0624 3.59493 7.17248 3.47616 7.26228C3.3516 7.34629 3.20097 7.41291 3.02136 7.45926C2.83887 7.50272 2.6274 7.52299 2.38986 7.52299L1.43102 7.52299L1.43102 5.49813M7.89378 1.73518C7.70549 1.8105 7.53458 1.90899 7.37526 2.02776C7.21014 2.14653 7.05661 2.28268 6.92046 2.43621C6.78431 2.58974 6.66264 2.76065 6.55546 2.94605C6.44828 3.13434 6.35848 3.33712 6.28606 3.56017C6.21364 3.78612 6.1586 4.02366 6.12094 4.26989C6.08328 4.5306 6.06301 4.8 6.06301 5.08099C6.06301 5.36198 6.08328 5.63138 6.12094 5.8863C6.1586 6.13832 6.21364 6.37586 6.28606 6.60181C6.35848 6.82197 6.44828 7.03343 6.55546 7.22752C6.66264 7.41581 6.78431 7.58962 6.92046 7.75184C7.05661 7.90827 7.20724 8.04731 7.37526 8.16608C7.53168 8.28485 7.70549 8.38624 7.89378 8.47314C8.08208 8.55715 8.28196 8.62088 8.49342 8.65854C8.70199 8.70199 8.91925 8.72227 9.1452 8.72227C9.37115 8.72227 9.59131 8.70199 9.80857 8.65854C10.0171 8.62088 10.217 8.55715 10.4082 8.47314C10.5965 8.38914 10.7674 8.28485 10.9267 8.16608C11.089 8.04731 11.2396 7.90827 11.3815 7.75184C11.5148 7.58962 11.6336 7.41581 11.7407 7.22752C11.8508 7.03054 11.9435 6.82197 12.0159 6.60181C12.0884 6.37586 12.1434 6.13832 12.1811 5.8863C12.2187 5.63138 12.239 5.36198 12.239 5.08099C12.239 4.8029 12.2187 4.53349 12.1811 4.26989C12.1434 4.02366 12.0884 3.78902 12.0159 3.56596C11.9435 3.34581 11.8508 3.13724 11.7407 2.94605C11.6336 2.76355 11.5148 2.59264 11.3815 2.43621C11.2396 2.28847 11.089 2.14943 10.9267 2.02776C10.7703 1.91189 10.5965 1.81629 10.4082 1.74098C10.217 1.65118 10.0171 1.58745 9.80857 1.54979C9.59131 1.51213 9.37115 1.49185 9.1452 1.49185C8.91925 1.49185 8.70199 1.51213 8.49342 1.54979C8.28196 1.58745 8.07918 1.65118 7.89378 1.73518M7.47085 5.08389C7.47085 4.7131 7.51141 4.37707 7.59252 4.0729C7.66783 3.78322 7.78081 3.5341 7.93144 3.32553C8.07628 3.11696 8.25009 2.96053 8.45576 2.85335C8.66433 2.74327 8.89318 2.68823 9.1452 2.68823C9.40012 2.68823 9.63476 2.74327 9.84912 2.85335C10.0548 2.96053 10.2286 3.11696 10.3734 3.32553C10.5212 3.5341 10.6342 3.78322 10.7124 4.0729C10.7877 4.37417 10.8282 4.7131 10.8282 5.08389C10.8282 5.44888 10.7906 5.78781 10.7124 6.09487C10.6371 6.38745 10.5241 6.64526 10.3734 6.86832C10.2286 7.07689 10.0548 7.23911 9.84912 7.35498C9.63476 7.47085 9.40302 7.52879 9.1452 7.52879C8.89897 7.52879 8.66723 7.47085 8.45576 7.35498C8.25009 7.23911 8.07628 7.07689 7.93144 6.86832C7.78371 6.64816 7.67073 6.39034 7.59252 6.09487C7.51141 5.78781 7.47085 5.45178 7.47085 5.08389M22.7891 1.72939C22.6095 1.64828 22.4212 1.58745 22.2214 1.54979C22.0244 1.51213 21.8274 1.49185 21.6275 1.49185C21.2857 1.49185 20.9642 1.544 20.6629 1.64538C20.3732 1.74677 20.1183 1.89161 19.901 2.07411C19.6925 2.2624 19.5302 2.47387 19.4144 2.7143C19.2985 2.96632 19.2406 3.23283 19.2406 3.51382C19.2406 3.75715 19.2782 3.9831 19.3564 4.19167C19.4288 4.38286 19.5331 4.55957 19.6693 4.72179C19.7967 4.86663 19.9474 4.99698 20.1154 5.11285C20.2718 5.21424 20.4456 5.30694 20.6339 5.38805L21.5609 5.78491C21.9433 5.95003 22.1924 6.07459 22.3083 6.1557C22.3981 6.23102 22.4676 6.31213 22.5197 6.39903C22.5719 6.49173 22.5951 6.60181 22.5951 6.72637C22.5951 6.84514 22.5719 6.95522 22.5255 7.05951C22.4734 7.158 22.401 7.242 22.3083 7.30863C22.2156 7.38105 22.0997 7.43609 21.9635 7.47375C21.8216 7.51141 21.6652 7.53168 21.4914 7.53168C21.1988 7.53168 20.8917 7.45926 20.5702 7.31442C20.2689 7.17827 19.9879 6.99578 19.733 6.76403L18.9393 7.71708C19.1102 7.8793 19.2927 8.02414 19.4897 8.1516C19.6867 8.27906 19.8923 8.38624 20.1096 8.47025C20.3269 8.55425 20.547 8.62088 20.773 8.66723C21.0018 8.71068 21.2336 8.73096 21.4624 8.73096C21.8506 8.73096 22.2069 8.67592 22.5284 8.56584C22.8355 8.45866 23.102 8.30513 23.3279 8.10525C23.5452 7.91696 23.7103 7.69101 23.8262 7.4274C23.9421 7.17538 24 6.90887 24 6.62209C24 6.37876 23.9652 6.1557 23.8986 5.95003C23.8349 5.75884 23.7422 5.58503 23.6234 5.42571C23.5046 5.28087 23.354 5.14762 23.1773 5.02885C23.0209 4.91877 22.8297 4.81738 22.6095 4.72758L21.7028 4.33651C21.3205 4.18298 21.0684 4.06421 20.9497 3.97731C20.8425 3.90779 20.7672 3.82957 20.7208 3.73977C20.66 3.64707 20.631 3.54279 20.631 3.42692C20.631 3.19228 20.7208 3.01267 20.9004 2.88232C21.08 2.74906 21.3234 2.68533 21.6275 2.68533C21.9056 2.68533 22.1634 2.73748 22.4068 2.83887C22.6356 2.92867 22.8645 3.06771 23.0904 3.2618L23.7856 2.38696C23.6437 2.24502 23.4931 2.11756 23.325 2.00459C23.1599 1.89161 22.9803 1.80181 22.7891 1.72939Z" fill="#4cb4b4"/></svg>

<svg viewBox="0 0 24 24" xmlns="http://www.w3.org/2000/svg"><path d="M17.384 11.634h-4.826v1.291h.646v6.596l-.742.11.243 1.33 2.799-.536v2.083h1.277V20.17l.658-.133-.07-1.24-.588.096v-5.968h.6v-1.291m-1.877 1.291v1.278H14.46v-1.277h1.043m0 3.74H14.46v-1.278h1.043v1.277m-1.04 1.174h1.043v1.277l-1.043.185V17.84m9.406.307v-1.17h-6.793v1.17h1.462a22.387 22.387 0 0 1-.614 1.897h3.9c-.09.582-.203.939-.34 1.06-.09.073-.24.11-.454.11-.496 0-.98-.026-1.451-.075.124.18.225.391.307.631.072.238.115.464.133.673.625.026 1.161.02 1.605-.012.229-.012.417-.052.562-.122a1.02 1.02 0 0 0 .428-.287c.163-.165.293-.451.391-.857.102-.397.192-.97.27-1.727.011-.124.023-.298.032-.524h-3.566l.223-.767h3.905m-2.74-6.97h-1.325v.97h-2.242v4.282h5.808v-4.282H21.13v-.97m.924 1.967v.683h-.927v-.683h.927m-2.248 0v.683h-.99v-.683h.99m1.324 2.288v-.672h.927v.672h-.927m-1.324-.672v.672h-.99v-.672h.99m-13.44-3.464-1.617-.16-.058.901H.307v1.278h4.224l-.096.62h-2.85v6.946H0v1.304h11.127V20.88H9.568v-6.943H5.854l.134-.62h4.826v-1.278H6.237l.127-.744m1.733 5.535v.609H2.984v-.609h5.113m0-1.7v.64H2.984v-.64h5.113m-5.113 4.015v-.646h5.113v.646H2.984m0 1.738v-.678h5.113v.678H2.984M17.966 2.387a3.078 3.078 0 0 0-.46-.382 2.553 2.553 0 0 0-.53-.276 2.64 2.64 0 0 0-.569-.18c-.2-.037-.4-.057-.6-.057-.341 0-.662.052-.964.153-.29.102-.541.247-.753.43a2 2 0 0 0-.492.64 1.891 1.891 0 0 0-.174.799c0 .243.037.47.116.678.072.19.176.368.313.53.127.145.278.275.446.39.162.102.336.195.524.276l.921.397c.383.165.632.29.747.37.09.076.16.157.212.244a.659.659 0 0 1 .075.327.809.809 0 0 1-.07.334.616.616 0 0 1-.216.249.933.933 0 0 1-.345.165 1.804 1.804 0 0 1-.467.058c-.298 0-.608-.073-.927-.218a3.119 3.119 0 0 1-.831-.55l-.794.953c.165.162.348.307.545.435.2.127.405.234.62.318.217.084.437.15.663.197.229.044.46.064.69.064.388 0 .744-.055 1.066-.165.307-.107.573-.26.8-.46.216-.189.381-.415.497-.679.116-.252.174-.518.174-.805 0-.243-.035-.466-.101-.672a1.653 1.653 0 0 0-.275-.524 2.057 2.057 0 0 0-.447-.397 2.882 2.882 0 0 0-.567-.301l-.907-.391c-.382-.154-.634-.273-.753-.36a.635.635 0 0 1-.229-.237.557.557 0 0 1-.09-.313c0-.235.09-.414.27-.545.18-.133.423-.197.727-.197a2 2 0 0 1 .779.154c.229.09.458.229.684.423l.692-.875M4.838 3.34c0-.319-.064-.59-.192-.811a1.335 1.335 0 0 0-.524-.53 2.31 2.31 0 0 0-.794-.287 5.335 5.335 0 0 0-.99-.084H.058v6.973h2.46a4.22 4.22 0 0 0 1.06-.128c.327-.084.608-.211.843-.376.252-.171.44-.383.567-.64.07-.134.12-.273.154-.424.035-.156.052-.318.052-.486a1.99 1.99 0 0 0-.101-.64 1.39 1.39 0 0 0-.27-.478 1.616 1.616 0 0 0-.408-.334 2.02 2.02 0 0 0-.519-.205v-.044c.142-.052.272-.127.397-.229.11-.1.209-.223.293-.364.08-.137.142-.284.185-.44.046-.154.067-.31.067-.473m-2.04-.603c.157.035.287.084.383.154.107.07.185.156.237.26.047.11.07.241.07.392a1 1 0 0 1-.07.382.73.73 0 0 1-.223.287c-.107.075-.237.139-.397.185a2.129 2.129 0 0 1-.562.064h-.805V2.685h.831c.206.003.383.02.536.052M1.431 5.498h.959c.246 0 .458.02.631.058.183.035.333.09.455.165.128.075.22.177.275.301.07.12.102.264.102.435 0 .18-.035.336-.102.472a.9.9 0 0 1-.275.333c-.124.084-.275.15-.455.197a2.753 2.753 0 0 1-.631.064H1.43V5.498m6.463-3.763c-.189.075-.36.174-.519.293a2.763 2.763 0 0 0-.455.408 3.12 3.12 0 0 0-.634 1.124 4.61 4.61 0 0 0-.165.71 5.656 5.656 0 0 0 0 1.616c.038.252.093.49.165.716.072.22.162.431.27.626.107.188.228.362.364.524.137.156.287.295.455.414.157.119.33.22.519.307.188.084.388.148.6.186.208.043.425.063.651.063.226 0 .446-.02.664-.063a2.667 2.667 0 0 0 1.118-.493c.162-.119.313-.258.455-.414a3.56 3.56 0 0 0 .634-1.15c.072-.226.127-.464.165-.716a5.726 5.726 0 0 0 0-1.616 4.455 4.455 0 0 0-.165-.704 3.327 3.327 0 0 0-.634-1.13 3.778 3.778 0 0 0-.455-.408 2.307 2.307 0 0 0-.519-.287 2.414 2.414 0 0 0-.6-.191 3.869 3.869 0 0 0-.663-.058c-.226 0-.443.02-.652.058a2.536 2.536 0 0 0-.6.185m-.422 3.349c0-.37.04-.707.122-1.011.075-.29.188-.539.338-.747.145-.209.32-.365.525-.473.208-.11.437-.165.69-.165.254 0 .489.055.703.165.206.108.38.264.524.473.148.208.261.457.34.747.075.301.115.64.115 1.01 0 .366-.037.705-.116 1.012-.075.292-.188.55-.339.773a1.58 1.58 0 0 1-.524.487 1.448 1.448 0 0 1-.704.174c-.246 0-.478-.058-.69-.174a1.58 1.58 0 0 1-.524-.487 2.546 2.546 0 0 1-.338-.773 3.948 3.948 0 0 1-.122-1.011m15.318-3.355a2.496 2.496 0 0 0-.568-.18 3.15 3.15 0 0 0-.593-.057c-.342 0-.664.052-.965.153-.29.102-.545.247-.762.43-.209.187-.37.399-.487.64a1.891 1.891 0 0 0-.173.799c0 .243.037.47.115.678.073.19.177.368.313.53.128.145.278.275.446.39.157.102.33.195.519.276l.927.397c.382.165.631.29.747.37.09.076.16.157.212.244a.658.658 0 0 1 .075.327.807.807 0 0 1-.07.334.716.716 0 0 1-.217.249.979.979 0 0 1-.345.165 1.832 1.832 0 0 1-.472.058c-.292 0-.6-.073-.92-.218a3.195 3.195 0 0 1-.838-.55l-.794.953c.171.162.354.307.55.435.198.127.403.234.62.318.218.084.438.15.664.197.229.044.46.064.69.064.388 0 .744-.055 1.065-.165a2.37 2.37 0 0 0 .8-.46c.217-.189.382-.415.498-.679.116-.252.174-.518.174-.805 0-.243-.035-.466-.101-.672a1.85 1.85 0 0 0-.276-.524 2.059 2.059 0 0 0-.446-.397 2.88 2.88 0 0 0-.567-.301l-.907-.391c-.383-.154-.635-.273-.753-.36a.635.635 0 0 1-.23-.237.557.557 0 0 1-.089-.313c0-.235.09-.414.27-.545.179-.133.422-.197.727-.197a2 2 0 0 1 .779.154c.229.09.457.229.683.423l.696-.875a3.068 3.068 0 0 0-.461-.382 2.529 2.529 0 0 0-.536-.276Z" fill="#4cb4b4"/></svg>
